X:1
T:Hor su la nuda
T:Hor su la nuda
T:Orlande de Lassus
C:Orlande de Lassus
%%score [ 1 2 [ 3 4 ] ]
L:1/8
Q:1/4=80
M:2/2
K:C
V:1 treble nm="Superius" snm="S"
V:2 treble nm="Altus" snm="A"
V:3 treble-8 nm="Tenor 1" snm="T 1"
V:4 treble-8 nm="Tenor 2" snm="T 2"
V:1
 d4 B2 G2 | g4 e2 e2- | ed cB c2 A2 | Bc dB cd ef | e2 d2 cB BA/G/ | A2 A2 z4 | z8 | z2 g4 e2 | %8
w: Hor su la|nu- da ter-|* * * * ra ho-|ra _ _ _ _ _ _ _|su l'her- * * * * *|* be||di pen-|
 e2 f4 e2 | d3 A B2 B2 | c8 | B2 B2 d4- | d2 d2 e2 c2- | cA A2 c2 d2 | AB cd e2 d2- | d2 c2 d4 | %16
w: sier in pen-|sier di vo- ce'in|vo-|ce, al fred-|* do'al cal- do'al-|* la piag- gia'et al|so- * * * * *|* * le,|
 z4 d4 | e2 ^f2 g2 e2 | d4 B4 | B2 c2 A3 B | c2 B2 z G B2 | dd g4 f2 | e2 e4 c2 |"^#" cA d4 c2 | %24
w: cer-|to pe'l mon- d'ha-|vea ri-|po- so'e sta- *|* to quan- do|rag- gio del ciel|mi giun- s'al|fo- * * *|
 d2 A2 _B2 A2 | A2 G2 A2 e2 | f4 d2 e2- | ed cB AB cB- | BA/G/ A2 B2 B2 | cd ed cB AG | ^F2 G4 F2 | %31
w: co, en' o- gni|mia for- tu- na'e|gion- t'a- ri-||* * * * va, e|giun- * * * t'a _ _ _|_ _ ri-|
 G4 z2 d2- | d2 c2 B2 c2- | c2 B2 d4- | d2 G2 z2 d2 | B2 B2 e3 f | gf ed c4- | c4 B3 A/G/ | A4 z4 | %39
w: va, O|_ ri- v'a- ven-|* tu- ro-|* sa, O|fio- ri'o her- *||* be, _ _|_|
 z4 z2 d2 | c3 A B2 e2 | d4 d4 | z4 z2 d2 | c3 A B2 e2 | d2 B2 c2 d2 | c2 c2 z4 | z4 z2 G2 | %47
w: io|vi- vo'in ques- to|fo- co,|io|vi- vo'in ques- to|fo- co'e sen- to|vo- ce|chia-|
 g6 f2 | e2 A2 e4 | A4 z4 | z2 A2 d4- | d2 c2 d2 B2 | A2 f2 e2 e2 | A4 A4 | z2 A2 f4 | d2 d4 c2 | %56
w: mar- n'in|ques- to sta-|to|chia- mar-|* n'in ques- to|sta- to'al ve- ro|so- le,|chia- mar-|n'in ques- to|
 c2 c2 g2 g2 | gf ed cG c2- | c2 BA B4- | B8 |] %60
w: sta- to'al ve- ro|so- * * * * * *|* * * le.|_|
V:2
 z4 G4 | E2 C2 c4 | A2 A4 F2 | GE FG AF GA | G3 D E4 | D4 A4- | A2 D2 D2 A2- | A2 G2 B2 c2 | %8
w: Hor|su la nu-|da ter- ra|ho- * * * * * * *|ra su l'her-|be di|_ pen- sier in|_ pen- sier di|
 c4 c4 | A2 D4 G2 | G2 A2 G4 | G4 z2 B2 | A2 B2 c2 G2 | z c2 c AG FE | D2 C2 A,2 A2- | AG E2 ^F4 | %16
w: vo- ce'in|vo- ce di|vo- ce'in vo-|ce, al|fred- do'al cal- do|al- la piag- * * *|* gia'et al so-|* * * le,|
 z4 z2 G2- | G2 A2 B2 c2 | A2 A2 D2 G2- | GGE G2 ^F/E/ F2 | G8 | G,2 B,2 DD A2 | A2 A2 G2 E2 | A8 | %24
w: cer-|* to pe'l mon-|d'ha- vea ri- po-|* so'e sta- * * * *|to|quan- do rag- gio del|ciel- mi giun- s'al|fo-|
 ^F2 F2 G2 F2 |"^#""^#" E2 D3 C/B,/ C2 | A,2 A2 BA GF | G2 A2 ^F2 G2- | G^F/E/ F2 G4 | z2 G3 F E2 | %30
w: co, en' o- gni|mia for- * * tu-|* n'e giun- * * *|* t'a ri- *|* * * * va,|e _ _|
 D2 C2 D4 | D8 | G8- | G4 A2 A2 | D2 D2 ^F4 | G2 G4 E2 | B2 cB AG A2- | A2 G4 G2 | F3 D E2 A2 | %39
w: giun- t'a ri-|va,|O|_ ri- v'a-|ven- tu- ro-|sa, O fio-|ri'o her- * * * *|* be io|vi- vo'in ques- to|
 G2 E2 A2 A2 | A2 E2 z2 c2 | B3 G A2 A2- | AGE F2 E A2 | A2 A2 G3 E | ^F2 G2 A2 D2 | A4 _B2 A2- | %46
w: fo- co'e sen- to|vo- ce, io|vi- vi- v'in ques-|* to fo- co'e sen- to|vo- ce'io vi- vo'in|ques- to fo- co'e|sen- to vo-|
 AG FE D2 B,2 | z2 E2 A2 A2 | c6 B2 | c2 c2 AG FE | FD EF G2 _B2 | A4 A2 z G | F2 D2 C2 B,2 | %53
w: * * * * * ce|chia- mar- n'in|ques- to|sta- to'al ve- * * *|* * * * * ro|so- le, in|ques- to sta- to'al|
 D3 E FG F2- | F2 E2 D2 C2 | z D _B2 A2 A2- | A2 G2 E2 D2 | E2 C2 G4 | G8- | G8 |] %60
w: ve- * * * *|* ro so- le,|chia- mar- n'in ques-|* to sta- to|ve- ro so-|le.|_|
V:3
 z8 | z8 | z8 | z8 | z4 z2 g2- | g2 f2 f4 | e2 g2 f2 f2- | fe/d/ e2 d2 g2- | g2 a3 g g2- | %9
w: ||||Di|_ pen- sier|in pen- sier di|_ _ _ _ vo- ve'in|_ vo- * *|
 g2 f2 g2 d2 | e2 f4 e2- | e2 d2 z2 g2 | ^f2 g2 g2 e2- | e2 e2 fg ag | f2 e4 f2 | e4 d2 A2 | %16
w: * * ce di|vo- ce'in vo-|* ce, al|fred- do'al cal- do'al|_ la piag- * * *|* gia'et al|so- le, cer-|
 B2 ^c2 d2 B2- | B2 d4 g2 | ^f2 f2 g2 dd | e2 c2 d4 | e4 d2 G2 | B2 dd a2 d2- | d2 c2 e2 g2 | %23
w: to pe'l mon- d'ha-|* vea ri|po- so'e sta- to, ri-|po- so'e sta-|* to, quan-|do rag- gio del ciel|_ mi giun- se'al|
 f4 e4 | d2 d2 d2 d2 | ^c2 d2 e4 | d4 z4 | c4 d2 e2 | d4 G2 G2 | AB cd ed cB | A2 G2 A4 | B8 | e8 | %33
w: fo- *|co, en' o- gni|mia for- tu-|na,|e giun- t'a|ri- va, e|giun- * * * * * * *|* t'a ri-|va,|O|
 d6 A2 | _B2 B2 A4 | G4 z2 g2 | e2 c2 f4 | e4 d4- | d4 z4 | z2 g2 f3 d | e2 a2 g2 c2 | z2 g2 f3 d | %42
w: ri- v'a-|ven- tu- ro-|sa, O|fio- ri'o her-|* be|_|io vi- vo'in|ques- to fo- co,|io vi- vo'in|
 e2 a2 g2 f2 | e2 e2 e2 c2 | z2 z g f3 d | e2 f2 d>e fe | fe dc BB d2- | dc c2 d2 d2 | a6 g2 | %49
w: ques- to fo- co'e|sen- to vo- ce,|io vi- vo'in|ques- to fo- * * *|* * * * * co'e sen-|* * to vo- ce,|chia- mar-|
 f2 e2 fe dc | _B2 A2 G2 g2 | f2 e2 z2 d2- | d2 a4 g2 | f2 f2 d4 | A4 z2 a2 | f2 g2 f2 f2 | %56
w: n'in ques- to _ _ _|sta- to'al ve- ro|so- le, chia-|* mar- n'in|ques- to sta-|to, chia-|mar- n'in ques- to|
 e3 d c2 G2 | g2 g2 e4 | d8- | d8 |] %60
w: sta- * * to|ve- ro so-|le.|_|
V:4
 z8 | z8 | z8 | z8 | z8 | z2 d4 A2 |"^b" A2 B4 F2 | c2 c2 G2 C2 | c8 | d4 G4 | c2 A2 c4 | %11
w: |||||pen- sier|in pen- sier|di vo- ce'in vo-|ce|di vo-|ce'in vo- ce,|
 G4 z2 G2 | d2 G2 c4 | A3 A F2 DE | FG AB ^c2 d2 | A4 D2 D2 | G2 A2 ^F2 G2 | E2 D2 G2 C2 | D4 G4 | %19
w: al fred-|do'al cal- do'al|la piag- gia'et al _|_ _ _ _ _ so-|le, cer- to|pe'l mon- d'ha- vea|ri- po- so'e sta-|to, quan-|
 z8 | C2 E2 GG d2 | d2 G2 D2 D2 | A3 B c4 | F3 G A4 | z2 D2 G2 D2 | A2 _B2 A4 | D4 z4 | z8 | z8 | %29
w: |do ra- gio del ciel|mi giun- se'al fo-|co, * *|* * en'|o- gni mia|for- tu- na,|e|||
 z4 C4 | D2 E2 D4 | G8 | z4 G4- | G4 ^F4 | G4 D2 D2 | d4 c4 | z4 z2 F2 | A2 E2 G4 | D2 d2 c3 A | %39
w: giun-|t'a ri- va,|O|ri-|_ v'a-|ven- tu- ro-|sa, O|fio-|ri'o her- be,|io vi- vo'in ques-|
 B2 c2 d4 | A4 z4 | z4 z2 d2 | c3 A Bc d2 | A4 z4 | z4 z2 _B2 | A3 F G2 A2 | D2 D2 G2 G2 | E4 D4 | %48
w: to fo- co,|io|vi-|vo'in ques- to fo- co,|io|vi-|vo'in ques- to fo-|co'e sen- to vo-|ce, chia-|
 z8 | z2 A2 d4- | d2 c2 _B2 G2 | A2 A2 ^F2 G2 | D4 E4 | z2 D4 d2- | d2 c2 _B2 A2 | _B2 G2 DE FG | %56
w: |mar- n'in|* ques- to sta-|to'al ve- ro so-|le, chia-|mar- n'in|* ques- to sta-|to'al ve- ro * * *|
 AB c4 B2 | c8 | G8- | G8 |] %60
w: * * * so-|le.|è|_|

